X:1
T:Earl of Seafield's [2], The
C:Alexander Walker
L:1/8
M:2/2
I:linebreak $
K:C
V:1 treble 
V:1
 E | E>A A/A/A c2 Ac | BGdG gdBG | e>A A/A/A c2 AF | ECDB, CA,A, :| c |$ A/A/A a^g aAce | %7
 fGBG dGB{d}c | A/A/A a>^g aba^f | gedB cAAc |$ A/A/A a^g aAce | gGBG dGB{d}c | AcBd ced[^gd'] | %13
 c'ab^g aAA || %14
